; generated by PrusaSlicer 2.5.0+win64 on 2024-07-17 at 22:43:50 UTC


;
;
; 

; external perimeters extrusion width = 0.45mm
; perimeters extrusion width = 0.45mm
; infill extrusion width = 0.45mm
; solid infill extrusion width = 0.45mm
; top infill extrusion width = 0.40mm
; support material extrusion width = 0.35mm
; first layer extrusion width = 0.42mm

M73 P0 R52
M73 Q0 S52
M201 X1000 Y1000 Z200 E5000 ; sets maximum accelerations, mm/sec^2
M203 X200 Y200 Z12 E120 ; sets maximum feedrates, mm / sec
M204 P1250 R1250 T1250 ; sets acceleration (P, T) and retract acceleration (R), mm/sec^2
M205 X8.00 Y8.00 Z0.40 E4.50 ; sets the jerk limits, mm/sec
M205 S0 T0 ; sets the minimum extruding and travel feed rate, mm/sec
M107
;TYPE:Custom
M862.3 P "MK3S" ; printer model check
M862.1 P0.4 ; nozzle diameter check
M115 U3.11.0 ; tell printer latest fw version
G90 ; use absolute coordinates
M83 ; extruder relative mode
M104 S215 ; set extruder temp
M140 S60 ; set bed temp
M190 S60 ; wait for bed temp
M109 S215 ; wait for extruder temp
G28 W ; home all without mesh bed level
G80 ; mesh bed leveling

G1 Z0.2 F720
G1 Y-3 F1000 ; go outside print area
G92 E0
G1 X60 E9 F1000 ; intro line
G1 X100 E12.5 F1000 ; intro line

G92 E0
M221 S95

; Don't change E values below. Excessive value can damage the printer.
M907 E430 ; set extruder motor current
G21 ; set units to millimeters
G90 ; use absolute coordinates
M83 ; use relative distances for extrusion
M900 K0.05 ; Filament gcode LA 1.5
M900 K30 ; Filament gcode LA 1.0
M107
;LAYER_CHANGE
;Z:0.2
;HEIGHT:0.2
;BEFORE_LAYER_CHANGE
G92 E0.0
;0.2


G1 E-.8 F2100
G1 Z.4 F720
;AFTER_LAYER_CHANGE
;0.2
G1 X105.87 Y90.993 F10800
G1 Z.2 F720
G1 E.8 F2100
M204 S800
;TYPE:Skirt/Brim
;WIDTH:0.42
G1 F1200
G1 X106.915 Y90.117 E.04278
G1 X107.855 Y89.923 E.03008
G1 X142.145 Y89.923 E1.07514
G1 X143.452 Y90.315 E.04278
G1 X144.328 Y91.36 E.04278
G1 X144.522 Y92.3 E.03008
G1 X144.522 Y117.7 E.7964
G1 X144.13 Y119.007 E.04278
G1 X143.085 Y119.883 E.04278
G1 X142.145 Y120.077 E.03008
G1 X107.855 Y120.077 E1.07514
G1 X106.548 Y119.685 E.04278
G1 X105.672 Y118.64 E.04278
G1 X105.478 Y117.7 E.03008
G1 X105.478 Y92.3 E.7964
G1 X105.852 Y91.05 E.0409
M204 S1000
; printing object ShuntMount.STL id:0 copy 0
;WIPE_START
G1 F8640
G1 X106.915 Y90.117 E-.32671
G1 X107.855 Y89.923 E-.22155
G1 X108.772 Y89.923 E-.21174
;WIPE_END
G1 E-.04 F2100
G1 Z.6 F720
G1 X128.88 Y110.216 F10800
G1 Z.2 F720
G1 E.8 F2100
M204 S800
;TYPE:Perimeter
;WIDTH:0.419999
G1 F1200
G1 X127.884 Y110.826 E.03661
G1 X126.858 Y111.23 E.03457
G1 X125.778 Y111.454 E.03457
G1 X124.676 Y111.493 E.03457
G1 X123.677 Y111.365 E.03158
G1 X122.621 Y111.05 E.03457
G1 X121.632 Y110.561 E.03457
G1 X120.741 Y109.912 E.03457
G1 X119.972 Y109.121 E.03457
G1 X119.348 Y108.212 E.03457
G1 X118.858 Y107.133 E.03715
G1 X118.585 Y106.051 E.035
G1 X118.499 Y105.048 E.03157
G1 X118.585 Y103.949 E.03457
G1 X118.855 Y102.88 E.03457
G1 X119.301 Y101.871 E.03457
G1 X119.837 Y101.064 E.03037
G1 X120.345 Y100.489 E.02407
G1 X120.741 Y100.088 E.01766
G1 X121.632 Y99.439 E.03457
G1 X122.621 Y98.95 E.03457
G1 X123.584 Y98.655 E.03157
G1 X124.654 Y98.51 E.03388
G1 X125.776 Y98.546 E.03519
G1 X126.858 Y98.77 E.03464
G1 X127.97 Y99.217 E.03757
G1 X128.904 Y99.802 E.03457
G1 X129.66 Y100.467 E.03157
G1 X130.16 Y101.073 E.02462
G1 X130.426 Y101.423 E.01377
G1 X130.904 Y102.279 E.03075
G1 X131.279 Y103.316 E.03457
G1 X131.481 Y104.496 E.03757
G1 X131.481 Y105.504 E.03158
G1 X131.303 Y106.592 E.03457
G1 X130.929 Y107.672 E.03585
G1 X130.359 Y108.68 E.03631
G1 X129.727 Y109.464 E.03157
G1 X128.926 Y110.179 E.03365
M204 S1000
G1 X128.666 Y109.905 F10800
M204 S800
;TYPE:External perimeter
G1 F1200
G1 X127.772 Y110.462 E.03303
G1 X126.778 Y110.861 E.03357
G1 X125.762 Y111.078 E.03257
G1 X124.756 Y111.12 E.03157
G1 X123.725 Y110.991 E.03257
G1 X122.731 Y110.689 E.03257
G1 X121.775 Y110.207 E.03357
G1 X120.965 Y109.609 E.03158
G1 X120.394 Y109.016 E.02579
G1 X120.149 Y108.724 E.01195
G1 X119.66 Y108.001 E.02737
G1 X119.219 Y107.025 E.03357
G1 X118.965 Y106.048 E.03166
G1 X118.875 Y105.016 E.03249
G1 X118.96 Y103.981 E.03257
G1 X119.219 Y102.975 E.03257
G1 X119.545 Y102.248 E.02495
G1 X119.76 Y101.852 E.01414
G1 X120.224 Y101.165 E.02602
G1 X120.965 Y100.391 E.03357
G1 X121.802 Y99.776 E.03257
G1 X122.731 Y99.311 E.03257
G1 X123.694 Y99.016 E.03157
G1 X124.702 Y98.884 E.03188
G1 X125.761 Y98.922 E.03324
G1 X126.778 Y99.139 E.0326
G1 X127.743 Y99.524 E.03257
G1 X128.629 Y100.066 E.03257
G1 X129.411 Y100.75 E.03257
G1 X130.097 Y101.606 E.03439
G1 X130.575 Y102.462 E.03075
G1 X130.748 Y102.945 E.01606
G1 X130.923 Y103.441 E.01651
G1 X131.104 Y104.496 E.03357
G1 X131.104 Y105.504 E.03158
G1 X130.932 Y106.528 E.03257
G1 X130.577 Y107.533 E.03342
G1 X130.066 Y108.443 E.03273
G1 X129.433 Y109.227 E.03157
G1 X128.711 Y109.866 E.03023
M204 S1000
G1 X128.713 Y110.303 F10800
;WIPE_START
G1 F8640
G1 X127.772 Y110.462 E-.25692
G1 X126.778 Y110.861 E-.24724
G1 X125.762 Y111.078 E-.23988
G1 X125.693 Y111.08 E-.01595
;WIPE_END
G1 E-.04 F2100
G1 Z.6 F720
G1 X141.237 Y95.281 F10800
G1 Z.2 F720
G1 E.8 F2100
M204 S800
;TYPE:Perimeter
G1 F1200
G1 X141.088 Y94.944 E.01155
G1 X140.854 Y94.594 E.01322
G1 X140.562 Y94.29 E.01322
G1 X140.136 Y93.992 E.01629
;WIDTH:0.467441
G1 X139.91 Y93.884 E.00885
;WIDTH:0.514883
G1 X139.683 Y93.776 E.00984
;WIDTH:0.562324
G1 X139.457 Y93.669 E.01083
G1 X138.944 Y93.635 E.02221
;WIDTH:0.534144
G1 X138.488 Y93.686 E.01873
;WIDTH:0.527303
G1 X138.26 Y93.788 E.01006
;WIDTH:0.491535
G1 X138.032 Y93.89 E.00932
;WIDTH:0.455767
G1 X137.804 Y93.992 E.00857
;WIDTH:0.419999
G1 X137.454 Y94.226 E.01322
G1 X137.15 Y94.518 E.01322
G1 X136.901 Y94.858 E.01322
G1 X136.715 Y95.237 E.01322
G1 X136.598 Y95.642 E.01322
G1 X136.552 Y96.061 E.01322
G1 X136.58 Y96.481 E.01322
G1 X136.681 Y96.891 E.01322
G1 X136.849 Y97.271 E.01304
G1 X137.086 Y97.626 E.01339
G1 X137.378 Y97.93 E.01322
G1 X137.718 Y98.179 E.01322
G1 X137.979 Y98.31 E.00916
G1 X138.502 Y98.482 E.01724
G1 X138.921 Y98.528 E.01322
G1 X139.341 Y98.5 E.01322
G1 X139.751 Y98.399 E.01322
G1 X140.136 Y98.228 E.01322
G1 X140.486 Y97.994 E.01322
G1 X140.79 Y97.702 E.01322
G1 X141.039 Y97.362 E.01322
G1 X141.225 Y96.983 E.01322
;WIDTH:0.424156
G1 X141.344 Y96.579 E.01336
G1 X141.358 Y97.013 E.01376
;WIDTH:0.419999
G1 X141.359 Y113.42 E.51443
G1 X141.259 Y113.109 E.01022
G1 X141.088 Y112.724 E.01322
G1 X140.854 Y112.374 E.01322
G1 X140.562 Y112.07 E.01322
G1 X140.222 Y111.821 E.01322
G1 X139.843 Y111.635 E.01322
G1 X139.438 Y111.518 E.01322
G1 X138.985 Y111.474 E.01427
G1 X138.599 Y111.5 E.01215
G1 X138.189 Y111.601 E.01322
G1 X137.804 Y111.772 E.01322
G1 X137.454 Y112.006 E.01322
G1 X137.15 Y112.298 E.01322
G1 X136.901 Y112.638 E.01322
G1 X136.715 Y113.017 E.01322
G1 X136.598 Y113.422 E.01322
G1 X136.552 Y113.841 E.01322
G1 X136.58 Y114.261 E.01322
G1 X136.681 Y114.671 E.01322
G1 X136.852 Y115.056 E.01322
G1 X137.086 Y115.406 E.01322
G1 X137.378 Y115.71 E.01322
G1 X137.718 Y115.959 E.01322
G1 X138.097 Y116.145 E.01322
;WIDTH:0.462916
G1 X138.262 Y116.211 E.00622
;WIDTH:0.505833
G1 X138.428 Y116.277 E.00686
;WIDTH:0.54875
G1 X138.593 Y116.344 E.00749
G1 X138.97 Y116.366 E.01588
;WIDTH:0.532984
G1 X139.452 Y116.314 E.01977
;WIDTH:0.527304
G1 X139.68 Y116.212 E.01006
;WIDTH:0.491536
G1 X139.908 Y116.11 E.00932
;WIDTH:0.455768
G1 X140.136 Y116.008 E.00857
;WIDTH:0.419999
G1 X140.415 Y115.823 E.01051
G1 X140.79 Y115.482 E.0159
G1 X141.039 Y115.141 E.01322
G1 X141.235 Y114.731 E.01427
;WIDTH:0.424156
G1 X141.344 Y114.359 E.01229
G1 X141.358 Y114.757 E.01263
;WIDTH:0.419999
G1 X141.358 Y116.913 E.06759
G1 X140.013 Y116.913 E.04215
;WIDTH:0.462916
G1 X139.799 Y116.891 E.00754
;WIDTH:0.505833
G1 X139.584 Y116.87 E.00831
;WIDTH:0.54875
G1 X139.369 Y116.849 E.00908
G1 X138.571 Y116.849 E.03356
G1 X138.412 Y116.87 E.00677
;WIDTH:0.505833
G1 X138.252 Y116.891 E.00619
;WIDTH:0.462916
G1 X138.093 Y116.913 E.00562
;WIDTH:0.419999
G1 X112.073 Y116.913 E.81582
;WIDTH:0.462916
G1 X111.859 Y116.891 E.00754
;WIDTH:0.505833
G1 X111.644 Y116.87 E.00831
;WIDTH:0.54875
G1 X111.429 Y116.849 E.00908
G1 X110.631 Y116.849 E.03356
G1 X110.472 Y116.87 E.00677
;WIDTH:0.505833
G1 X110.312 Y116.891 E.00619
;WIDTH:0.462916
G1 X110.153 Y116.913 E.00562
;WIDTH:0.419999
G1 X108.642 Y116.913 E.04737
G1 X108.642 Y115.116 E.05634
;WIDTH:0.424157
G1 X108.644 Y114.36 E.02395
G1 X108.741 Y114.671 E.0103
;WIDTH:0.420277
G1 X108.912 Y115.056 E.01323
;WIDTH:0.419999
G1 X109.146 Y115.406 E.01322
G1 X109.438 Y115.71 E.01322
G1 X109.778 Y115.959 E.01322
G1 X110.157 Y116.145 E.01322
;WIDTH:0.462916
G1 X110.322 Y116.211 E.00622
;WIDTH:0.505833
G1 X110.488 Y116.277 E.00686
;WIDTH:0.54875
G1 X110.653 Y116.344 E.00749
G1 X111.03 Y116.366 E.01588
;WIDTH:0.532984
G1 X111.512 Y116.314 E.01977
;WIDTH:0.527305
G1 X111.74 Y116.212 E.01006
;WIDTH:0.491537
G1 X111.968 Y116.11 E.00932
;WIDTH:0.455768
G1 X112.196 Y116.008 E.00857
;WIDTH:0.419999
G1 X112.546 Y115.774 E.01322
G1 X112.85 Y115.482 E.01322
G1 X113.099 Y115.142 E.01322
G1 X113.285 Y114.763 E.01322
G1 X113.402 Y114.358 E.01322
G1 X113.448 Y113.939 E.01322
G1 X113.42 Y113.519 E.01322
G1 X113.319 Y113.109 E.01322
G1 X113.205 Y112.845 E.00901
G1 X112.914 Y112.374 E.01738
G1 X112.622 Y112.07 E.01322
G1 X112.282 Y111.821 E.01322
G1 X111.973 Y111.667 E.0108
G1 X111.498 Y111.518 E.01561
G1 X111.045 Y111.474 E.01427
G1 X110.659 Y111.5 E.01215
G1 X110.249 Y111.601 E.01322
G1 X109.864 Y111.772 E.01322
G1 X109.514 Y112.006 E.01322
G1 X109.21 Y112.298 E.01322
G1 X108.961 Y112.638 E.01322
G1 X108.775 Y113.017 E.01322
G1 X108.658 Y113.422 E.01322
G1 X108.642 Y113.096 E.01022
G1 X108.642 Y97.336 E.49416
;WIDTH:0.424157
G1 X108.644 Y96.58 E.02395
G1 X108.741 Y96.891 E.0103
;WIDTH:0.420277
G1 X108.912 Y97.276 E.01323
;WIDTH:0.419999
G1 X109.146 Y97.626 E.01322
G1 X109.438 Y97.93 E.01322
G1 X109.778 Y98.179 E.01322
G1 X110.157 Y98.365 E.01322
G1 X110.562 Y98.482 E.01322
G1 X110.981 Y98.528 E.01322
G1 X111.401 Y98.5 E.01322
G1 X111.811 Y98.399 E.01322
G1 X112.196 Y98.228 E.01322
G1 X112.546 Y97.994 E.01322
G1 X112.85 Y97.702 E.01322
G1 X113.039 Y97.447 E.00994
G1 X113.285 Y96.983 E.01647
G1 X113.402 Y96.578 E.01322
G1 X113.448 Y96.159 E.01322
G1 X113.42 Y95.739 E.01322
G1 X113.319 Y95.329 E.01322
G1 X113.148 Y94.944 E.01322
G1 X112.914 Y94.594 E.01322
G1 X112.622 Y94.29 E.01322
G1 X112.196 Y93.992 E.01629
;WIDTH:0.467441
G1 X111.97 Y93.884 E.00885
;WIDTH:0.514882
G1 X111.743 Y93.776 E.00984
;WIDTH:0.562323
G1 X111.517 Y93.669 E.01083
G1 X111.004 Y93.635 E.02221
;WIDTH:0.534143
G1 X110.548 Y93.686 E.01873
;WIDTH:0.527302
G1 X110.32 Y93.788 E.01006
;WIDTH:0.491535
G1 X110.092 Y93.89 E.00932
;WIDTH:0.455767
G1 X109.864 Y93.992 E.00857
;WIDTH:0.419999
G1 X109.585 Y94.177 E.01051
G1 X109.21 Y94.518 E.0159
G1 X108.961 Y94.858 E.01322
G1 X108.775 Y95.237 E.01322
G1 X108.658 Y95.642 E.01322
G1 X108.642 Y95.316 E.01022
G1 X108.642 Y93.087 E.0699
G1 X109.987 Y93.087 E.04215
;WIDTH:0.462916
G1 X110.201 Y93.109 E.00754
;WIDTH:0.505832
G1 X110.416 Y93.13 E.00831
;WIDTH:0.548748
G1 X110.631 Y93.151 E.00908
G1 X111.417 Y93.151 E.03306
;WIDTH:0.548255
G1 X111.636 Y93.13 E.00924
;WIDTH:0.505503
G1 X111.855 Y93.108 E.00846
;WIDTH:0.462751
G1 X112.073 Y93.087 E.00767
;WIDTH:0.419999
G1 X137.927 Y93.087 E.8106
;WIDTH:0.462916
G1 X138.141 Y93.109 E.00754
;WIDTH:0.505833
G1 X138.356 Y93.13 E.00831
;WIDTH:0.548749
G1 X138.571 Y93.151 E.00908
G1 X139.357 Y93.151 E.03306
;WIDTH:0.548256
G1 X139.576 Y93.13 E.00924
;WIDTH:0.505504
G1 X139.795 Y93.108 E.00846
;WIDTH:0.462752
G1 X140.013 Y93.087 E.00767
;WIDTH:0.419999
G1 X141.358 Y93.087 E.04215
G1 X141.358 Y93.686 E.01878
G1 X141.359 Y95.64 E.06125
G1 X141.261 Y95.336 E.01
M204 S1000
;WIPE_START
G1 F8640
G1 X141.088 Y94.944 E-.09894
G1 X140.854 Y94.594 E-.09733
G1 X140.562 Y94.29 E-.09733
G1 X140.136 Y93.992 E-.11999
G1 X139.91 Y93.884 E-.0579
G1 X139.683 Y93.776 E-.0579
G1 X139.457 Y93.669 E-.0579
G1 X138.944 Y93.635 E-.11874
G1 X138.711 Y93.661 E-.05397
;WIPE_END
G1 E-.04 F2100
G1 Z.6 F720
G1 X141.735 Y92.71 F10800
G1 Z.2 F720
G1 E.8 F2100
M204 S800
;TYPE:External perimeter
G1 F1200
G1 X141.735 Y117.29 E.77069
G1 X108.265 Y117.29 E1.04943
G1 X108.265 Y92.71 E.77069
G1 X141.675 Y92.71 E1.04755
M204 S1000
M73 P1 R52
M73 Q1 S52
G1 X141.612 Y93.091 F10800
;WIPE_START
G1 F8640
G1 X141.683 Y96.001 E-.76
;WIPE_END
G1 E-.04 F2100
G1 Z.6 F720
G1 X140.82 Y95.263 F10800
G1 Z.2 F720
G1 E.8 F2100
M204 S800
G1 F1200
G1 X140.895 Y95.427 E.00567
G1 X140.984 Y95.772 E.01116
G1 X141.012 Y96.126 E.01116
G1 X140.978 Y96.481 E.01116
G1 X140.883 Y96.824 E.01116
G1 X140.73 Y97.145 E.01116
G1 X140.524 Y97.435 E.01116
G1 X140.27 Y97.685 E.01116
G1 X139.977 Y97.887 E.01116
G1 X139.653 Y98.035 E.01116
G1 X139.308 Y98.124 E.01116
G1 X138.954 Y98.152 E.01116
G1 X138.599 Y98.118 E.01116
G1 X138.139 Y97.969 E.01518
G1 X137.67 Y97.685 E.01718
G1 X137.395 Y97.41 E.01219
G1 X137.191 Y97.112 E.01134
G1 X137.045 Y96.793 E.01098
G1 X136.956 Y96.448 E.01116
G1 X136.928 Y96.094 E.01116
G1 X136.962 Y95.739 E.01116
G1 X137.045 Y95.427 E.01013
G1 X137.21 Y95.075 E.01219
G1 X137.416 Y94.785 E.01116
G1 X137.67 Y94.535 E.01116
G1 X137.963 Y94.333 E.01116
G1 X138.287 Y94.185 E.01116
G1 X138.632 Y94.096 E.01116
G1 X138.957 Y94.07 E.01025
G1 X139.341 Y94.102 E.01206
G1 X139.684 Y94.197 E.01117
G1 X140.005 Y94.35 E.01116
G1 X140.295 Y94.556 E.01116
G1 X140.545 Y94.81 E.01116
G1 X140.747 Y95.103 E.01116
G1 X140.795 Y95.208 E.00361
M204 S1000
G1 X141 Y95.273 F10800
G1 X141.359 Y95.739
M204 S800
;TYPE:Perimeter
;WIDTH:0.418366
G1 F1200
G1 X141.359 Y96.481 E.02318
;WIDTH:0.424758
G1 X141.356 Y96.53 E.00156
M204 S1000
;WIPE_START
G1 F8640
G1 X141.359 Y96.481 E-.01132
G1 X141.359 Y95.739 E-.17143
;WIPE_END
G1 E-.61725 F2100
G1 Z.6 F720
G1 X140.56 Y115.164 F10800
G1 Z.2 F720
G1 E.8 F2100
M204 S800
;TYPE:External perimeter
;WIDTH:0.419999
G1 F1200
G1 X140.199 Y115.514 E.01579
G1 X139.977 Y115.667 E.00845
G1 X139.653 Y115.815 E.01116
G1 X139.308 Y115.904 E.01116
G1 X138.954 Y115.932 E.01116
G1 X138.599 Y115.898 E.01116
G1 X138.256 Y115.803 E.01116
G1 X137.935 Y115.65 E.01116
G1 X137.645 Y115.444 E.01116
G1 X137.395 Y115.19 E.01116
G1 X137.193 Y114.897 E.01116
G1 X137.045 Y114.573 E.01116
G1 X136.956 Y114.228 E.01116
G1 X136.928 Y113.874 E.01116
G1 X136.962 Y113.519 E.01116
G1 X137.057 Y113.176 E.01116
G1 X137.21 Y112.855 E.01116
G1 X137.416 Y112.565 E.01116
G1 X137.67 Y112.315 E.01116
G1 X138.139 Y112.031 E.01719
G1 X138.632 Y111.876 E.0162
G1 X138.957 Y111.85 E.01025
G1 X139.341 Y111.882 E.01206
G1 X139.684 Y111.977 E.01117
G1 X140.005 Y112.13 E.01116
G1 X140.295 Y112.336 E.01116
G1 X140.545 Y112.59 E.01116
G1 X140.747 Y112.883 E.01116
G1 X140.895 Y113.207 E.01116
G1 X140.984 Y113.552 E.01116
G1 X141.012 Y113.906 E.01116
G1 X140.978 Y114.261 E.01116
G1 X140.891 Y114.576 E.01025
G1 X140.73 Y114.925 E.01206
G1 X140.595 Y115.115 E.0073
M204 S1000
G1 X140.695 Y115.54 F10800
;WIPE_START
G1 F8640
G1 X140.199 Y115.514 E-.12992
G1 X139.977 Y115.667 E-.06222
G1 X139.653 Y115.815 E-.0822
G1 X139.308 Y115.904 E-.08219
G1 X138.954 Y115.932 E-.0822
G1 X138.599 Y115.898 E-.0822
G1 X138.256 Y115.803 E-.08219
G1 X137.935 Y115.65 E-.08219
G1 X137.671 Y115.463 E-.07469
;WIPE_END
G1 E-.04 F2100
G1 Z.6 F720
G1 X141.359 Y113.519 F10800
G1 Z.2 F720
G1 E.8 F2100
M204 S800
;TYPE:Perimeter
;WIDTH:0.418366
G1 F1200
G1 X141.359 Y114.261 E.02318
;WIDTH:0.424758
G1 X141.356 Y114.31 E.00156
M204 S1000
;WIPE_START
G1 F8640
G1 X141.359 Y114.261 E-.01132
G1 X141.359 Y113.519 E-.17143
;WIPE_END
G1 E-.61725 F2100
G1 Z.6 F720
G1 X109.098 Y114.546 F10800
G1 Z.2 F720
G1 E.8 F2100
M204 S800
;TYPE:External perimeter
;WIDTH:0.419999
G1 F1200
G1 X109.016 Y114.228 E.01028
G1 X108.988 Y113.874 E.01116
G1 X109.022 Y113.519 E.01116
G1 X109.117 Y113.176 E.01116
G1 X109.27 Y112.855 E.01116
G1 X109.476 Y112.565 E.01116
G1 X109.73 Y112.315 E.01116
G1 X110.023 Y112.113 E.01116
G1 X110.347 Y111.965 E.01116
G1 X110.692 Y111.876 E.01116
G1 X111.017 Y111.85 E.01025
G1 X111.401 Y111.882 E.01206
G1 X111.814 Y112.009 E.01355
