; generated by PrusaSlicer 2.7.1+win64 on 2024-04-20 at 17:25:01 UTC


;
;
; 

; external perimeters extrusion width = 0.45mm
; perimeters extrusion width = 0.45mm
; infill extrusion width = 0.45mm
; solid infill extrusion width = 0.45mm
; top infill extrusion width = 0.40mm
; support material extrusion width = 0.35mm
; first layer extrusion width = 0.42mm

; external perimeters extrusion width = 0.45mm
; perimeters extrusion width = 0.45mm
; infill extrusion width = 0.45mm
; solid infill extrusion width = 0.45mm
; top infill extrusion width = 0.40mm
; support material extrusion width = 0.35mm
; first layer extrusion width = 0.42mm

; external perimeters extrusion width = 0.45mm
; perimeters extrusion width = 0.45mm
; infill extrusion width = 0.45mm
; solid infill extrusion width = 0.45mm
; top infill extrusion width = 0.40mm
; support material extrusion width = 0.35mm
; first layer extrusion width = 0.42mm

; external perimeters extrusion width = 0.45mm
; perimeters extrusion width = 0.45mm
; infill extrusion width = 0.45mm
; solid infill extrusion width = 0.45mm
; top infill extrusion width = 0.40mm
; support material extrusion width = 0.35mm
; first layer extrusion width = 0.42mm

M73 P0 R131
M73 Q0 S137
M201 X1000 Y1000 Z200 E5000 ; sets maximum accelerations, mm/sec^2
M203 X200 Y200 Z12 E120 ; sets maximum feedrates, mm / sec
M204 S1250 T1250 ; sets acceleration (S) and retract acceleration (R), mm/sec^2
M205 X8.00 Y8.00 Z0.40 E4.50 ; sets the jerk limits, mm/sec
M205 S0 T0 ; sets the minimum extruding and travel feed rate, mm/sec

; printing object Simple_Fillet_Tool.STL id:0 copy 0
; stop printing object Simple_Fillet_Tool.STL id:0 copy 0
; printing object Simple_Fillet_Tool.STL id:1 copy 0
; stop printing object Simple_Fillet_Tool.STL id:1 copy 0
; printing object Simple_Fillet_Tool.STL id:2 copy 0
; stop printing object Simple_Fillet_Tool.STL id:2 copy 0
; printing object Simple_Fillet_Tool.STL id:3 copy 0
; stop printing object Simple_Fillet_Tool.STL id:3 copy 0

;TYPE:Custom
M862.3 P "MK3S" ; printer model check
M862.1 P0.4 ; nozzle diameter check
M115 U3.11.0 ; tell printer latest fw version
G90 ; use absolute coordinates
M83 ; extruder relative mode
M104 S215 ; set extruder temp
M140 S60 ; set bed temp
M190 S60 ; wait for bed temp
M109 S215 ; wait for extruder temp
G28 W ; home all without mesh bed level
G80 ; mesh bed leveling

G1 Z0.2 F720
G1 Y-3 F1000 ; go outside print area
G92 E0
G1 X60 E9 F1000 ; intro line
G1 X100 E12.5 F1000 ; intro line

G92 E0
M221 S95

; Don't change E values below. Excessive value can damage the printer.

M907 E538 ; set extruder motor current
G21 ; set units to millimeters
G90 ; use absolute coordinates
M83 ; use relative distances for extrusion
M900 K0.05 ; Filament gcode LA 1.5
M900 K30 ; Filament gcode LA 1.0
M107
;LAYER_CHANGE
;Z:0.2
;HEIGHT:0.2
;BEFORE_LAYER_CHANGE
G92 E0.0
;0.2


G1 E-.8 F2100
G1 Z.2 F720
;AFTER_LAYER_CHANGE
;0.2
G1 X63.752 Y51.377 F10800
G1 Z.2 F720
G1 E.8 F2100
M204 S800
;TYPE:Skirt/Brim
;WIDTH:0.42
G1 F1200
G1 X66.07 Y49.059 E.10278
G1 X66.688 Y48.614 E.02388
G1 X71.323 Y46.296 E.16249
G1 X72.387 Y46.045 E.03428
G1 X117.75 Y46.046 E1.42233
G1 X193.565 Y48.052 E2.37796
G1 X194.861 Y48.478 E.04277
M73 P0 R130
G1 X195.709 Y49.546 E.04276
G1 X195.879 Y50.417 E.02782
G1 X196.199 Y125.789 E2.36326
G1 X195.472 Y171.418 E1.43085
G1 X195.059 Y172.719 E.0428
G1 X194 Y173.578 E.04275
G1 X193.133 Y173.757 E.02776
G1 X147.505 Y174.484 E1.43082
G1 X139.221 Y174.484 E.25974
G1 X62.266 Y173.545 E2.41305
G1 X60.964 Y173.138 E.04277
G1 X60.1 Y172.082 E.04278
G1 X59.918 Y171.168 E.02922
G1 X59.918 Y125.839 E1.42126
G1 X60.738 Y57.665 E2.1377
G1 X60.989 Y56.63 E.03339
G1 X63.307 Y51.995 E.16249
G1 X63.717 Y51.425 E.02202
M204 S1000
; printing object Simple_Fillet_Tool.STL id:1 copy 0
;WIPE_START
G1 F8640
G1 X63.752 Y51.377 E-.01372
G1 X66.07 Y49.059 E-.75693
G1 X66.173 Y48.985 E-.02935
;WIPE_END
G1 Z.6 F720
G1 X116.866 Y124.812 F10800
G1 Z.2 F720
G1 E.8 F2100
M204 S800
;TYPE:Support material
G1 F1200
G1 X115.44 Y124.812 E.04471
G1 X114.879 Y123.858 E.0347
G1 X114.227 Y122.976 E.03439
G1 X113.354 Y122.04 E.04013
G1 X112.922 Y121.732 E.01664
G1 X83.946 Y121.737 E.90852
G1 X82.471 Y121.84 E.04636
G1 X81.009 Y122.072 E.04641
G1 X79.574 Y122.43 E.04637
G1 X78.31 Y122.858 E.04184
G1 X76.955 Y123.448 E.04634
G1 X75.781 Y124.079 E.04179
G1 X74.54 Y124.885 E.0464
G1 X73.376 Y125.794 E.04631
G1 X72.189 Y126.911 E.05111
G1 X71.025 Y128.249 E.05561
G1 X70.085 Y129.58 E.05109
G1 X69.212 Y131.123 E.05559
G1 X68.555 Y132.615 E.05112
G1 X68.008 Y134.301 E.05558
G1 X67.662 Y135.893 E.05108
G1 X67.461 Y137.655 E.0556
G1 X67.429 Y167.224 E.92712
G1 X67.738 Y167.656 E.01665
G1 X68.674 Y168.529 E.04013
G1 X69.555 Y169.181 E.03437
G1 X70.511 Y169.743 E.03477
G1 X70.512 Y171.168 E.04468
G1 X62.295 Y171.168 E.25764
G1 X62.295 Y125.868 E1.42035
G1 X64.612 Y125.868 E.07265
G1 X64.612 Y121.232 E.14536
G1 X66.93 Y121.232 E.07268
G1 X66.93 Y118.915 E.07265
G1 X71.566 Y118.915 E.14536
G1 X71.566 Y116.597 E.07268
G1 X116.866 Y116.597 E1.42035
G1 X116.866 Y124.756 E.25582
M204 S1000
G1 X116.297 Y124.643 F10800
M204 S800
G1 F1200
G1 X116.297 Y116.936 E.24165
G1 X115.878 Y116.936 E.01314
G1 X115.878 Y124.473 E.23632
G1 X115.644 Y124.473 E.00734
G1 X115.459 Y124.146 E.01178
G1 X115.459 Y116.936 E.22606
G1 X115.04 Y116.936 E.01314
G1 X115.04 Y123.491 E.20553
G1 X114.621 Y122.925 E.02208
G1 X114.621 Y116.936 E.18778
G1 X114.202 Y116.936 E.01314
G1 X114.202 Y122.427 E.17217
G1 X113.783 Y121.984 E.01912
G1 X113.783 Y116.936 E.15828
G1 X113.364 Y116.936 E.01314
G1 X113.364 Y121.588 E.14586
G1 X112.945 Y121.392 E.0145
G1 X112.945 Y116.936 E.13971
G1 X112.526 Y116.936 E.01314
G1 X112.526 Y121.392 E.13971
G1 X112.107 Y121.392 E.01314
G1 X112.107 Y116.936 E.13971
G1 X111.688 Y116.936 E.01314
G1 X111.688 Y121.392 E.13971
G1 X111.269 Y121.392 E.01314
G1 X111.269 Y116.936 E.13971
G1 X110.85 Y116.936 E.01314
M73 Q0 S136
G1 X110.85 Y121.392 E.13971
G1 X110.431 Y121.392 E.01314
G1 X110.431 Y116.936 E.13971
G1 X110.012 Y116.936 E.01314
G1 X110.012 Y121.392 E.13971
G1 X109.593 Y121.392 E.01314
G1 X109.593 Y116.936 E.13971
G1 X109.174 Y116.936 E.01314
G1 X109.174 Y121.392 E.13971
G1 X108.755 Y121.392 E.01314
G1 X108.755 Y116.936 E.13971
G1 X108.336 Y116.936 E.01314
G1 X108.336 Y121.392 E.13971
G1 X107.917 Y121.392 E.01314
G1 X107.917 Y116.936 E.13971
G1 X107.498 Y116.936 E.01314
G1 X107.498 Y121.392 E.13971
G1 X107.079 Y121.392 E.01314
G1 X107.079 Y116.936 E.13971
G1 X106.661 Y116.936 E.01311
G1 X106.661 Y121.392 E.13971
G1 X106.242 Y121.392 E.01314
G1 X106.242 Y116.936 E.13971
G1 X105.823 Y116.936 E.01314
G1 X105.823 Y121.392 E.13971
G1 X105.404 Y121.392 E.01314
G1 X105.404 Y116.936 E.13971
G1 X104.985 Y116.936 E.01314
G1 X104.985 Y121.392 E.13971
G1 X104.566 Y121.392 E.01314
G1 X104.566 Y116.936 E.13971
G1 X104.147 Y116.936 E.01314
G1 X104.147 Y121.392 E.13971
G1 X103.728 Y121.392 E.01314
G1 X103.728 Y116.936 E.13971
G1 X103.309 Y116.936 E.01314
G1 X103.309 Y121.392 E.13971
G1 X102.89 Y121.392 E.01314
G1 X102.89 Y116.936 E.13971
G1 X102.471 Y116.936 E.01314
G1 X102.471 Y121.392 E.13971
G1 X102.052 Y121.392 E.01314
G1 X102.052 Y116.936 E.13971
G1 X101.633 Y116.936 E.01314
G1 X101.633 Y121.392 E.13971
G1 X101.214 Y121.392 E.01314
G1 X101.214 Y116.936 E.13971
G1 X100.795 Y116.936 E.01314
G1 X100.795 Y121.392 E.13971
G1 X100.376 Y121.392 E.01314
G1 X100.376 Y116.936 E.13971
G1 X99.957 Y116.936 E.01314
G1 X99.957 Y121.392 E.13971
G1 X99.538 Y121.392 E.01314
G1 X99.538 Y116.936 E.13971
G1 X99.119 Y116.936 E.01314
G1 X99.119 Y121.392 E.13971
G1 X98.7 Y121.392 E.01314
G1 X98.7 Y116.936 E.13971
G1 X98.281 Y116.936 E.01314
G1 X98.281 Y121.392 E.13971
G1 X97.862 Y121.392 E.01314
G1 X97.862 Y116.936 E.13971
G1 X97.443 Y116.936 E.01314
G1 X97.443 Y121.392 E.13971
G1 X97.024 Y121.392 E.01314
G1 X97.024 Y116.936 E.13971
G1 X96.605 Y116.936 E.01314
G1 X96.605 Y121.392 E.13971
G1 X96.186 Y121.392 E.01314
G1 X96.186 Y116.936 E.13971
G1 X95.767 Y116.936 E.01314
G1 X95.767 Y121.392 E.13971
G1 X95.348 Y121.392 E.01314
G1 X95.348 Y116.936 E.13971
G1 X94.929 Y116.936 E.01314
G1 X94.929 Y121.392 E.13971
G1 X94.51 Y121.392 E.01314
G1 X94.51 Y116.936 E.13971
G1 X94.091 Y116.936 E.01314
G1 X94.091 Y121.392 E.13971
G1 X93.672 Y121.392 E.01314
G1 X93.672 Y116.936 E.13971
G1 X93.253 Y116.936 E.01314
G1 X93.253 Y121.392 E.13971
G1 X92.834 Y121.392 E.01314
G1 X92.834 Y116.936 E.13971
G1 X92.415 Y116.936 E.01314
G1 X92.415 Y121.392 E.13971
G1 X91.996 Y121.392 E.01314
G1 X91.996 Y116.936 E.13971
G1 X91.577 Y116.936 E.01314
G1 X91.577 Y121.392 E.13971
G1 X91.158 Y121.392 E.01314
G1 X91.158 Y116.936 E.13971
G1 X90.739 Y116.936 E.01314
G1 X90.739 Y121.392 E.13971
G1 X90.32 Y121.392 E.01314
G1 X90.32 Y116.936 E.13971
G1 X89.901 Y116.936 E.01314
G1 X89.901 Y121.392 E.13971
G1 X89.482 Y121.392 E.01314
G1 X89.482 Y116.936 E.13971
G1 X89.063 Y116.936 E.01314
G1 X89.063 Y121.392 E.13971
G1 X88.645 Y121.392 E.01311
G1 X88.645 Y116.936 E.13971
G1 X88.226 Y116.936 E.01314
G1 X88.226 Y121.392 E.13971
G1 X87.807 Y121.392 E.01314
G1 X87.807 Y116.936 E.13971
G1 X87.388 Y116.936 E.01314
G1 X87.388 Y121.392 E.13971
G1 X86.969 Y121.392 E.01314
G1 X86.969 Y116.936 E.13971
G1 X86.55 Y116.936 E.01314
G1 X86.55 Y121.392 E.13971
G1 X86.131 Y121.392 E.01314
G1 X86.131 Y116.936 E.13971
G1 X85.712 Y116.936 E.01314
G1 X85.712 Y121.392 E.13971
G1 X85.293 Y121.392 E.01314
G1 X85.293 Y116.936 E.13971
G1 X84.874 Y116.936 E.01314
G1 X84.874 Y121.392 E.13971
G1 X84.455 Y121.392 E.01314
G1 X84.455 Y116.936 E.13971
G1 X84.036 Y116.936 E.01314
G1 X84.036 Y121.396 E.13984
G1 X83.617 Y121.41 E.01314
G1 X83.617 Y116.936 E.14028
G1 X83.198 Y116.936 E.01314
G1 X83.198 Y121.433 E.141
G1 X82.779 Y121.467 E.01318
G1 X82.779 Y116.936 E.14207
G1 X82.36 Y116.936 E.01314
G1 X82.36 Y121.512 E.14348
G1 X81.941 Y121.566 E.01325
G1 X81.941 Y116.936 E.14517
G1 X81.522 Y116.936 E.01314
G1 X81.522 Y121.632 E.14724
G1 X81.103 Y121.707 E.01335
G1 X81.103 Y116.936 E.14959
G1 X80.684 Y116.936 E.01314
G1 X80.684 Y121.794 E.15232
G1 X80.265 Y121.891 E.01348
G1 X80.265 Y116.936 E.15536
G1 X79.846 Y116.936 E.01314
G1 X79.846 Y122 E.15878
G1 X79.427 Y122.119 E.01366
G1 X79.427 Y116.936 E.16251
G1 X79.008 Y116.936 E.01314
G1 X79.008 Y122.251 E.16665
G1 X78.589 Y122.394 E.01388
G1 X78.589 Y116.936 E.17113
G1 X78.17 Y116.936 E.01314
G1 X78.17 Y122.549 E.17599
G1 X77.751 Y122.717 E.01415
G1 X77.751 Y116.936 E.18126
G1 X77.332 Y116.936 E.01314
G1 X77.332 Y122.897 E.1869
G1 X76.913 Y123.091 E.01448
G1 X76.913 Y116.936 E.19299
G1 X76.494 Y116.936 E.01314
G1 X76.494 Y123.299 E.19951
G1 X76.075 Y123.521 E.01487
M73 P0 R129
G1 X76.075 Y116.936 E.20647
G1 X75.656 Y116.936 E.01314
G1 X75.656 Y123.759 E.21393
G1 X75.237 Y124.011 E.01533
G1 X75.237 Y116.936 E.22183
G1 X74.818 Y116.936 E.01314
G1 X74.818 Y124.281 E.2303
G1 X74.399 Y124.569 E.01594
G1 X74.399 Y116.936 E.23933
G1 X73.98 Y116.936 E.01314
G1 X73.98 Y124.874 E.24889
G1 X73.561 Y125.2 E.01665
G1 X73.561 Y116.936 E.25911
G1 X73.142 Y116.936 E.01314
G1 X73.142 Y125.547 E.26999
G1 X72.723 Y125.918 E.01755
G1 X72.723 Y116.936 E.28162
G1 X72.304 Y116.936 E.01314
G1 X72.304 Y126.314 E.29404
G1 X71.885 Y126.737 E.01867
G1 X71.885 Y119.254 E.23462
G1 X71.466 Y119.254 E.01314
G1 X71.466 Y127.191 E.24886
G1 X71.047 Y127.68 E.02019
G1 X71.047 Y119.254 E.26419
G1 X70.628 Y119.254 E.01314
G1 X70.628 Y128.208 E.28075
G1 X70.21 Y128.782 E.02226
G1 X70.21 Y119.254 E.29874
G1 X69.791 Y119.254 E.01314
G1 X69.791 Y129.41 E.31843
G1 X69.372 Y130.105 E.02545
G1 X69.372 Y119.254 E.34023
G1 X68.953 Y119.254 E.01314
M73 P1 R129
G1 X68.953 Y130.883 E.36462
G1 X68.534 Y131.773 E.03084
G1 X68.534 Y119.254 E.39252
G1 X68.115 Y119.254 E.01314
G1 X68.115 Y132.827 E.42557
G1 X67.696 Y134.155 E.04366
G1 X67.696 Y119.254 E.46721
G1 X67.277 Y119.254 E.01314
G1 X67.277 Y136.158 E.53001
G1 X67.09 Y138.69 E.07961
M73 Q1 S136
G1 X67.09 Y167.287 E.89664
G1 X67.277 Y167.656 E.01297
G1 X67.277 Y170.829 E.09949
G1 X67.696 Y170.829 E.01314
G1 X67.696 Y168.099 E.0856
G1 X68.115 Y168.495 E.01808
G1 X68.115 Y170.829 E.07318
G1 X68.534 Y170.829 E.01314
G1 X68.534 Y168.852 E.06199
G1 X68.953 Y169.175 E.01659
G1 X68.953 Y170.829 E.05186
G1 X69.372 Y170.829 E.01314
G1 X69.372 Y169.466 E.04274
G1 X69.791 Y169.73 E.01553
G1 X69.791 Y170.999 E.03979
M204 S1000
G1 X66.858 Y170.999 F10800
M204 S800
G1 F1200
G1 X66.858 Y121.572 E1.54975
G1 X66.439 Y121.572 E.01314
G1 X66.439 Y170.829 E1.54442
G1 X66.02 Y170.829 E.01314
G1 X66.02 Y121.572 E1.54442
G1 X65.601 Y121.572 E.01314
G1 X65.601 Y170.829 E1.54442
G1 X65.182 Y170.829 E.01314
G1 X65.182 Y121.572 E1.54442
G1 X64.952 Y121.572 E.00721
G1 X64.952 Y126.207 E.14533
G1 X64.763 Y126.207 E.00593
G1 X64.763 Y170.829 E1.39909
G1 X64.344 Y170.829 E.01314
G1 X64.344 Y126.207 E1.39909
G1 X63.925 Y126.207 E.01314
G1 X63.925 Y170.829 E1.39909
G1 X63.506 Y170.829 E.01314
G1 X63.506 Y126.207 E1.39909
G1 X63.087 Y126.207 E.01314
G1 X63.087 Y170.829 E1.39909
G1 X62.668 Y170.829 E.01314
M73 Q1 S135
G1 X62.668 Y126.038 E1.40439
M204 S1000
;WIPE_START
G1 F8640
G1 X62.668 Y129.503 E-.8
;WIPE_END
G1 Z.6 F720
G1 X115.352 Y169.654 F10800
G1 Z.2 F720
G1 E.8 F2100
M204 S800
;TYPE:Perimeter
;WIDTH:0.419999
G1 F1200
G1 X75.35 Y169.654 E1.25423
G1 X74.701 Y169.632 E.02036
G1 X73.819 Y169.527 E.02785
G1 X72.955 Y169.34 E.02772
G1 X72.113 Y169.07 E.02772
G1 X71.302 Y168.722 E.02767
G1 X70.526 Y168.296 E.02776
G1 X69.795 Y167.799 E.02772
G1 X69.115 Y167.233 E.02774
G1 X68.697 Y166.814 E.01856
G1 X68.702 Y138.285 E.89451
G1 X68.783 Y137.046 E.03893
G1 X68.869 Y136.372 E.0213
G1 X68.984 Y135.702 E.02131
G1 X69.269 Y134.493 E.03895
G1 X69.465 Y133.842 E.02132
G1 X69.689 Y133.201 E.02129
G1 X70.167 Y132.06 E.03879
G1 X70.731 Y130.964 E.03865
G1 X71.38 Y129.915 E.03868
G1 X72.023 Y129.031 E.03427
G1 X72.82 Y128.09 E.03866
G1 X73.687 Y127.215 E.03862
G1 X74.621 Y126.411 E.03864
G1 X75.614 Y125.682 E.03862
G1 X76.662 Y125.034 E.03863
G1 X77.757 Y124.469 E.03863
G1 X78.894 Y123.993 E.03865
G1 X80.064 Y123.607 E.03863
G1 X81.257 Y123.315 E.03851
G1 X82.473 Y123.116 E.03863
G1 X83.568 Y123.021 E.03446
G1 X84.892 Y122.999 E.04152
G1 X112.516 Y122.999 E.86613
G1 X112.783 Y123.26 E.01171
G1 X113.182 Y123.705 E.01874
G1 X113.6 Y124.24 E.02129
G1 X113.925 Y124.723 E.01825
G1 X114.264 Y125.307 E.02117
G1 X114.551 Y125.893 E.02046
G1 X114.767 Y126.423 E.01794
G1 X114.977 Y127.058 E.02097
G1 X115.137 Y127.681 E.02017
G1 X115.24 Y128.238 E.01776
G1 X115.317 Y128.9 E.0209
G1 X115.346 Y129.548 E.02034
G1 X115.352 Y169.594 E1.25561
M204 S1000
G1 X115.729 Y170.032 F10800
M204 S800
;TYPE:External perimeter
G1 F1200
G1 X75.344 Y170.032 E1.26624
G1 X74.672 Y170.008 E.02108
G1 X73.757 Y169.9 E.02889
G1 X72.857 Y169.705 E.02887
G1 X71.981 Y169.424 E.02884
G1 X71.137 Y169.061 E.02881
G1 X70.329 Y168.618 E.02889
G1 X69.568 Y168.1 E.02886
G1 X68.86 Y167.512 E.02886
G1 X68.319 Y166.97 E.02401
G1 X68.325 Y138.272 E.8998
G1 X68.408 Y137.01 E.03965
G1 X68.496 Y136.316 E.02193
G1 X68.614 Y135.627 E.02192
G1 X68.904 Y134.395 E.03968
G1 X69.106 Y133.726 E.02191
G1 X69.337 Y133.065 E.02195
G1 X69.825 Y131.9 E.0396
G1 X70.403 Y130.778 E.03957
G1 X71.067 Y129.705 E.03956
G1 X71.726 Y128.798 E.03515
G1 X72.541 Y127.835 E.03956
G1 X73.43 Y126.939 E.03958
G1 X74.386 Y126.115 E.03957
G1 X75.403 Y125.369 E.03955
G1 X76.476 Y124.705 E.03956
G1 X77.598 Y124.127 E.03957
G1 X78.762 Y123.639 E.03957
G1 X79.96 Y123.244 E.03955
G1 X81.178 Y122.946 E.03932
G1 X82.43 Y122.742 E.03977
G1 X83.548 Y122.644 E.03519
G1 X84.889 Y122.622 E.04205
G1 X112.67 Y122.622 E.87105
G1 X113.062 Y123.007 E.01723
G1 X113.477 Y123.471 E.01952
G1 X113.909 Y124.025 E.02203
G1 X114.248 Y124.529 E.01904
G1 X114.6 Y125.136 E.022
G1 X114.898 Y125.744 E.02123
G1 X115.122 Y126.297 E.01871
G1 X115.341 Y126.957 E.0218
G1 X115.506 Y127.604 E.02094
G1 X115.613 Y128.185 E.01852
G1 X115.693 Y128.873 E.02172
G1 X115.723 Y129.548 E.02119
G1 X115.729 Y169.972 E1.26746
M204 S1000
;WIPE_START
G1 F8640
G1 X115.729 Y170.032 E-.01385
G1 X112.324 Y170.032 E-.78615
;WIPE_END
