; generated by PrusaSlicer 2.7.1+win64 on 2024-03-31 at 22:34:08 UTC


;
;
; 

; external perimeters extrusion width = 0.45mm
; perimeters extrusion width = 0.45mm
; infill extrusion width = 0.45mm
; solid infill extrusion width = 0.45mm
; top infill extrusion width = 0.40mm
; support material extrusion width = 0.35mm
; first layer extrusion width = 0.42mm

; external perimeters extrusion width = 0.45mm
; perimeters extrusion width = 0.45mm
; infill extrusion width = 0.45mm
; solid infill extrusion width = 0.45mm
; top infill extrusion width = 0.40mm
; support material extrusion width = 0.35mm
; first layer extrusion width = 0.42mm

M73 P0 R68
M73 Q0 S71
M201 X1000 Y1000 Z200 E5000 ; sets maximum accelerations, mm/sec^2
M203 X200 Y200 Z12 E120 ; sets maximum feedrates, mm / sec
M204 S1250 T1250 ; sets acceleration (S) and retract acceleration (R), mm/sec^2
M205 X8.00 Y8.00 Z0.40 E4.50 ; sets the jerk limits, mm/sec
M205 S0 T0 ; sets the minimum extruding and travel feed rate, mm/sec

; printing object Simple_Fillet_Tool.STL id:1 copy 0
; stop printing object Simple_Fillet_Tool.STL id:1 copy 0
; printing object Simple_Fillet_Tool.STL id:0 copy 0
; stop printing object Simple_Fillet_Tool.STL id:0 copy 0

;TYPE:Custom
M862.3 P "MK3S" ; printer model check
M862.1 P0.4 ; nozzle diameter check
M115 U3.11.0 ; tell printer latest fw version
G90 ; use absolute coordinates
M83 ; extruder relative mode
M104 S215 ; set extruder temp
M140 S60 ; set bed temp
M190 S60 ; wait for bed temp
M109 S215 ; wait for extruder temp
G28 W ; home all without mesh bed level
G80 ; mesh bed leveling

G1 Z0.2 F720
G1 Y-3 F1000 ; go outside print area
G92 E0
G1 X60 E9 F1000 ; intro line
G1 X100 E12.5 F1000 ; intro line

G92 E0
M221 S95

; Don't change E values below. Excessive value can damage the printer.

M907 E538 ; set extruder motor current
G21 ; set units to millimeters
G90 ; use absolute coordinates
M83 ; use relative distances for extrusion
M900 K0.05 ; Filament gcode LA 1.5
M900 K30 ; Filament gcode LA 1.0
M107
;LAYER_CHANGE
;Z:0.2
;HEIGHT:0.2
;BEFORE_LAYER_CHANGE
G92 E0.0
;0.2


G1 E-.8 F2100
G1 Z.2 F720
;AFTER_LAYER_CHANGE
;0.2
G1 X142.826 Y51.19 F10800
G1 Z.2 F720
G1 E.8 F2100
M204 S800
;TYPE:Skirt/Brim
;WIDTH:0.42
G1 F1200
G1 X145.143 Y46.555 E.16247
G1 X145.589 Y45.937 E.0239
G1 X148.017 Y43.509 E.10766
G1 X148.635 Y43.063 E.0239
G1 X153.27 Y40.746 E.16247
G1 X154.333 Y40.495 E.03425
G1 X199.79 Y40.495 E1.42527
G1 X201.471 Y41.191 E.05705
G1 X202.119 Y42.129 E.03575
G1 X205.42 Y50.777 E.29023
G1 X205.782 Y52.061 E.04183
G1 X206.046 Y53.381 E.04221
G1 X206.262 Y55.965 E.0813
G1 X206.26 Y98.918 E1.34676
G1 X203.112 Y173.086 E2.32758
G1 X202.418 Y174.666 E.05411
G1 X199.43 Y177.653 E.13247
G1 X197.749 Y178.35 E.05706
G1 X154.897 Y178.349 E1.34359
G1 X152.472 Y178.158 E.07627
M73 P0 R67
G1 X150.11 Y177.632 E.07587
G1 X141.061 Y174.207 E.30337
G1 X140.123 Y173.558 E.03576
G1 X139.427 Y171.878 E.05702
G1 X139.427 Y126.421 E1.42527
G1 X142.577 Y52.153 E2.33071
G1 X142.811 Y51.249 E.02928
M204 S1000
;WIPE_START
G1 F8640
G1 X142.826 Y51.19 E-.01406
G1 X144.348 Y48.145 E-.78594
;WIPE_END
G1 Z.6 F720
G1 X158.274 Y119.046 F10800
G1 Z.2 F720
G1 E.8 F2100
M204 S800
G1 F1200
G1 X160.665 Y118.509 E.07684
G1 X162.993 Y118.258 E.07342
G1 X164.553 Y118.229 E.04892
G1 X192.797 Y118.234 E.88557
G1 X194.137 Y118.533 E.04305
G1 X195.357 Y119.201 E.04361
G1 X196.228 Y119.997 E.037
G1 X197.546 Y121.528 E.06334
G1 X198.613 Y123.178 E.06161
G1 X199.448 Y124.954 E.06153
G1 X200.032 Y126.8 E.06071
G1 X200.373 Y128.771 E.06272
G1 X200.444 Y129.851 E.03394
G1 X200.451 Y171.238 E1.29766
G1 X200.074 Y172.765 E.04932
G1 X199.254 Y174.075 E.04846
G1 X198.636 Y174.647 E.0264
G1 X198.033 Y175.075 E.02319
G1 X196.083 Y175.686 E.06407
G1 X154.094 Y175.656 E1.31654
G1 X152.72 Y175.501 E.04335
G1 X151.35 Y175.213 E.04389
G1 X150.03 Y174.801 E.04336
G1 X148.753 Y174.266 E.04341
G1 X147.29 Y173.464 E.05231
G1 X146.181 Y172.697 E.04228
G1 X145.161 Y171.845 E.04167
G1 X143.717 Y170.239 E.06772
G1 X143.223 Y169.156 E.03732
G1 X142.993 Y167.982 E.03751
G1 X142.999 Y138.821 E.91432
G1 X143.097 Y137.241 E.04963
G1 X143.373 Y135.336 E.06035
G1 X143.77 Y133.651 E.05428
G1 X144.316 Y131.971 E.05539
G1 X144.926 Y130.503 E.04984
G1 X145.676 Y129.029 E.05185
G1 X146.538 Y127.619 E.05182
G1 X147.487 Y126.309 E.05072
G1 X148.546 Y125.061 E.05132
G1 X149.712 Y123.886 E.0519
G1 X150.979 Y122.796 E.0524
G1 X152.328 Y121.811 E.05237
G1 X153.745 Y120.939 E.05217
G1 X155.161 Y120.211 E.04992
G1 X156.701 Y119.565 E.05236
G1 X158.217 Y119.065 E.05005
M204 S1000
G1 X158.335 Y119.422 F10800
M204 S800
G1 F1200
G1 X158.371 Y119.41 E.00119
G1 X159.909 Y119.032 E.04966
G1 X161.581 Y118.758 E.05312
G1 X163.02 Y118.634 E.04529
G1 X164.555 Y118.606 E.04814
G1 X192.775 Y118.611 E.88482
G1 X194.027 Y118.894 E.04025
M73 Q0 S70
G1 X195.154 Y119.52 E.04042
G1 X196.627 Y120.985 E.06514
G1 X197.24 Y121.749 E.03071
G1 X198.28 Y123.356 E.06002
G1 X199.095 Y125.085 E.05993
G1 X199.664 Y126.884 E.05916
G1 X199.999 Y128.816 E.06148
G1 X200.067 Y129.857 E.03271
G1 X200.073 Y171.215 E1.29675
G1 X199.737 Y172.592 E.04444
M73 P1 R67
G1 X198.978 Y173.816 E.04516
G1 X197.839 Y174.75 E.04618
G1 X196.055 Y175.309 E.05862
G1 X154.114 Y175.279 E1.31503
G1 X152.771 Y175.127 E.04238
M73 Q1 S70
G1 X151.437 Y174.846 E.04274
G1 X150.151 Y174.444 E.04225
G1 X148.908 Y173.922 E.04227
G1 X147.496 Y173.148 E.05049
G1 X146.416 Y172.402 E.04116
G1 X145.413 Y171.564 E.04098
G1 X144.047 Y170.054 E.06384
G1 X143.588 Y169.06 E.03433
G1 X143.371 Y167.963 E.03506
G1 X143.376 Y138.827 E.91354
G1 X143.473 Y137.271 E.04888
G1 X143.744 Y135.405 E.05912
G1 X144.133 Y133.754 E.05318
G1 X144.67 Y132.1 E.05452
G1 X145.271 Y130.654 E.0491
G1 X146.008 Y129.207 E.05092
G1 X146.856 Y127.822 E.05092
G1 X147.788 Y126.536 E.0498
G1 X148.828 Y125.311 E.05038
G1 X149.974 Y124.157 E.05099
G1 X151.219 Y123.087 E.05147
G1 X152.532 Y122.128 E.05098
G1 X153.924 Y121.271 E.05125
G1 X155.314 Y120.556 E.04901
G1 X156.826 Y119.92 E.05143
G1 X158.278 Y119.441 E.04794
M204 S1000
G1 X158.396 Y119.799 F10800
M204 S800
G1 F1200
G1 X158.469 Y119.775 E.00241
G1 X160.78 Y119.254 E.07428
G1 X163.046 Y119.01 E.07146
G1 X164.556 Y118.983 E.04735
G1 X192.754 Y118.988 E.88413
G1 X193.915 Y119.255 E.03735
G1 X194.948 Y119.837 E.03718
G1 X196.337 Y121.227 E.06161
G1 X197.46 Y122.724 E.05868
G1 X198.373 Y124.364 E.05885
G1 X199.049 Y126.086 E.058
G1 X199.476 Y127.813 E.05578
G1 X199.624 Y128.862 E.03322
G1 X199.69 Y129.863 E.03145
G1 X199.696 Y171.192 E1.29584
G1 X199.379 Y172.472 E.04135
G1 X198.704 Y173.556 E.04004
G1 X197.647 Y174.425 E.0429
G1 X196.026 Y174.932 E.05325
G1 X154.135 Y174.903 E1.31346
G1 X152.823 Y174.754 E.0414
G1 X151.524 Y174.479 E.04163
G1 X150.273 Y174.087 E.0411
G1 X149.063 Y173.578 E.04116
G1 X147.702 Y172.832 E.04866
G1 X146.651 Y172.107 E.04003
G1 X145.664 Y171.282 E.04033
G1 X144.376 Y169.868 E.05997
G1 X143.953 Y168.963 E.03132
G1 X143.748 Y167.944 E.03259
G1 X143.753 Y138.833 E.91275
G1 X143.849 Y137.3 E.04816
G1 X144.115 Y135.474 E.05786
G1 X144.495 Y133.858 E.05205
G1 X145.024 Y132.229 E.0537
G1 X145.617 Y130.806 E.04834
G1 X146.341 Y129.385 E.05
G1 X147.174 Y128.025 E.05
G1 X148.089 Y126.763 E.04888
G1 X149.111 Y125.56 E.04949
G1 X150.237 Y124.428 E.05006
G1 X151.448 Y123.387 E.05007
G1 X152.736 Y122.445 E.05003
G1 X154.103 Y121.602 E.05036
G1 X155.467 Y120.9 E.0481
G1 X156.952 Y120.276 E.0505
G1 X158.339 Y119.817 E.04581
M204 S1000
G1 X158.458 Y120.175 F10800
M204 S800
G1 F1200
G1 X158.566 Y120.139 E.00357
G1 X160.079 Y119.767 E.04885
G1 X161.657 Y119.509 E.05013
G1 X163.072 Y119.386 E.04453
G1 X164.561 Y119.36 E.04669
G1 X192.731 Y119.365 E.88325
G1 X193.802 Y119.616 E.03449
G1 X194.741 Y120.153 E.03392
G1 X196.047 Y121.468 E.05811
G1 X196.629 Y122.192 E.02913
G1 X197.615 Y123.712 E.05681
G1 X198.388 Y125.349 E.05676
G1 X198.929 Y127.054 E.05609
G1 X199.25 Y128.908 E.059
G1 X199.313 Y129.87 E.03023
G1 X199.319 Y171.17 E1.29493
G1 X199.042 Y172.3 E.03648
G1 X198.428 Y173.297 E.03671
G1 X197.455 Y174.099 E.03954
G1 X195.997 Y174.555 E.0479
G1 X154.155 Y174.526 E1.31193
G1 X152.892 Y174.383 E.03985
G1 X151.627 Y174.116 E.04054
G1 X150.411 Y173.736 E.03995
G1 X149.218 Y173.235 E.04057
G1 X147.909 Y172.516 E.04683
G1 X146.872 Y171.801 E.03949
G1 X145.915 Y171.001 E.03911
G1 X144.704 Y169.681 E.05617
G1 X144.318 Y168.864 E.02833
G1 X144.125 Y167.924 E.03009
G1 X144.13 Y138.839 E.91194
G1 X144.225 Y137.329 E.04744
G1 X144.486 Y135.542 E.05662
G1 X144.858 Y133.961 E.05092
G1 X145.379 Y132.358 E.05285
G1 X145.962 Y130.958 E.04755
G1 X146.673 Y129.563 E.04909
G1 X147.491 Y128.229 E.04906
G1 X148.39 Y126.991 E.04797
G1 X149.393 Y125.81 E.04858
G1 X150.499 Y124.699 E.04915
G1 X151.688 Y123.678 E.04914
G1 X152.953 Y122.754 E.04912
G1 X154.282 Y121.934 E.04896
G1 X155.62 Y121.245 E.04719
G1 X157.077 Y120.632 E.04956
G1 X158.401 Y120.194 E.04373
M204 S1000
G1 X158.519 Y120.551 F10800
M204 S800
G1 F1200
G1 X158.663 Y120.504 E.00475
G1 X160.895 Y119.999 E.07175
G1 X163.098 Y119.763 E.06947
G1 X164.566 Y119.737 E.04604
G1 X192.71 Y119.742 E.88244
G1 X193.641 Y119.958 E.02997
G1 X194.5 Y120.443 E.03093
G1 X195.766 Y121.719 E.05636
G1 X196.827 Y123.134 E.05545
G1 X197.697 Y124.696 E.05606
G1 X198.333 Y126.325 E.05483
G1 X198.734 Y127.944 E.0523
G1 X198.876 Y128.953 E.03195
G1 X198.936 Y129.876 E.029
G1 X198.942 Y171.148 E1.29405
G1 X198.704 Y172.13 E.03168
G1 X198.152 Y173.039 E.03334
G1 X197.264 Y173.773 E.03612
G1 X195.969 Y174.178 E.04254
G1 X154.175 Y174.15 E1.31042
G1 X152.943 Y174.009 E.03888
G1 X151.714 Y173.749 E.03939
G1 X150.532 Y173.379 E.03883
G1 X149.374 Y172.891 E.0394
G1 X148.115 Y172.2 E.04503
G1 X147.107 Y171.506 E.03837
G1 X146.166 Y170.719 E.03846
G1 X145.031 Y169.491 E.05243
G1 X144.682 Y168.764 E.02529
G1 X144.502 Y167.905 E.02752
G1 X144.507 Y138.845 E.91116
G1 X144.601 Y137.358 E.04672
G1 X144.856 Y135.611 E.05536
G1 X145.221 Y134.064 E.04984
G1 X145.733 Y132.488 E.05196
G1 X146.307 Y131.109 E.04683
G1 X147.006 Y129.741 E.04817
G1 X147.809 Y128.432 E.04815
G1 X148.691 Y127.218 E.04705
G1 X149.676 Y126.06 E.04767
G1 X150.761 Y124.971 E.0482
G1 X151.928 Y123.969 E.04823
G1 X153.169 Y123.063 E.04818
G1 X154.461 Y122.266 E.0476
G1 X155.774 Y121.59 E.0463
G1 X157.203 Y120.987 E.04863
M73 P1 R66
G1 X158.462 Y120.57 E.04158
M204 S1000
G1 X158.581 Y120.928 F10800
M204 S800
G1 F1200
G1 X158.761 Y120.868 E.00595
G1 X160.952 Y120.372 E.07044
G1 X163.124 Y120.139 E.06849
G1 X164.571 Y120.115 E.04538
G1 X192.649 Y120.114 E.88037
G1 X193.482 Y120.301 E.02677
G1 X194.26 Y120.735 E.02793
G1 X195.484 Y121.97 E.05452
G1 X196.514 Y123.345 E.05387
G1 X197.358 Y124.863 E.05446
G1 X197.976 Y126.445 E.05325
G1 X198.364 Y128.016 E.05074
G1 X198.501 Y128.999 E.03112
G1 X198.559 Y129.882 E.02775
G1 X198.565 Y171.126 E1.29318
G1 X198.365 Y171.963 E.02698
M73 P2 R66
G1 X197.876 Y172.781 E.02988
G1 X197.074 Y173.446 E.03267
G1 X195.94 Y173.801 E.03726
G1 X154.195 Y173.773 E1.30889
G1 X152.995 Y173.636 E.03787
G1 X151.802 Y173.382 E.03824
G1 X150.654 Y173.022 E.03772
G1 X149.529 Y172.547 E.03829
G1 X148.321 Y171.884 E.04321
G1 X147.329 Y171.201 E.03776
G1 X146.417 Y170.437 E.0373
G1 X145.357 Y169.3 E.04874
G1 X145.045 Y168.661 E.0223
M73 Q2 S70
G1 X144.879 Y167.884 E.02491
G1 X144.885 Y138.851 E.91031
G1 X144.977 Y137.388 E.04596
G1 X145.227 Y135.68 E.05412
G1 X145.583 Y134.168 E.0487
G1 X146.087 Y132.617 E.05113
G1 X146.653 Y131.261 E.04607
G1 X147.338 Y129.919 E.04724
G1 X148.126 Y128.636 E.04721
G1 X148.991 Y127.446 E.04613
G1 X149.958 Y126.31 E.04678
G1 X151.023 Y125.242 E.04729
G1 X152.168 Y124.26 E.0473
G1 X153.385 Y123.372 E.04724
G1 X154.641 Y122.598 E.04626
G1 X155.927 Y121.934 E.04538
G1 X157.329 Y121.343 E.0477
G1 X158.524 Y120.946 E.03948
M204 S1000
G1 X158.643 Y121.304 F10800
M204 S800
G1 F1200
G1 X158.858 Y121.232 E.00711
G1 X160.333 Y120.869 E.04763
G1 X161.771 Y120.634 E.04569
G1 X164.575 Y120.492 E.08803
G1 X192.627 Y120.492 E.87955
G1 X193.371 Y120.662 E.02393
G1 X194.018 Y121.025 E.02326
G1 X195.203 Y122.221 E.05279
G1 X196.201 Y123.555 E.05224
G1 X197.019 Y125.029 E.05286
G1 X197.618 Y126.565 E.05169
G1 X197.993 Y128.088 E.04918
G1 X198.125 Y129.03 E.02982
G1 X198.182 Y129.888 E.02696
G1 X198.188 Y171.104 E1.2923
G1 X198.025 Y171.797 E.02232
G1 X197.599 Y172.524 E.02642
G1 X196.885 Y173.118 E.02912
G1 X195.911 Y173.424 E.03201
G1 X154.216 Y173.396 E1.30732
G1 X153.047 Y173.262 E.03689
G1 X151.889 Y173.015 E.03713
G1 X150.776 Y172.665 E.03658
G1 X149.685 Y172.204 E.03714
G1 X148.526 Y171.568 E.04145
G1 X147.564 Y170.906 E.03661
G1 X146.668 Y170.155 E.03666
G1 X145.682 Y169.106 E.04514
G1 X145.408 Y168.557 E.01924
G1 X145.256 Y167.863 E.02228
G1 X145.262 Y138.857 E.90946
G1 X145.353 Y137.418 E.04521
G1 X145.598 Y135.75 E.05286
G1 X145.946 Y134.271 E.04764
G1 X146.441 Y132.747 E.05024
G1 X146.998 Y131.413 E.04533
G1 X147.67 Y130.098 E.0463
G1 X148.444 Y128.84 E.04631
G1 X149.283 Y127.684 E.04479
G1 X150.24 Y126.561 E.04626
G1 X151.284 Y125.513 E.04638
G1 X152.407 Y124.552 E.04634
G1 X153.601 Y123.681 E.04634
G1 X154.82 Y122.93 E.04489
G1 X156.08 Y122.279 E.04447
G1 X157.455 Y121.698 E.0468
G1 X158.586 Y121.323 E.03736
M204 S1000
G1 X158.704 Y121.68 F10800
M204 S800
G1 F1200
G1 X158.956 Y121.597 E.00832
G1 X160.407 Y121.239 E.04686
G1 X161.82 Y121.008 E.04489
G1 X164.577 Y120.869 E.08655
M73 Q2 S69
G1 X192.606 Y120.869 E.87883
G1 X193.213 Y121.006 E.01951
G1 X193.778 Y121.317 E.02022
G1 X194.921 Y122.472 E.05095
G1 X195.888 Y123.765 E.05062
G1 X196.681 Y125.195 E.05127
G1 X197.261 Y126.684 E.0501
G1 X197.623 Y128.16 E.04765
G1 X197.805 Y129.895 E.0547
G1 X197.811 Y171.084 E1.29145
G1 X197.684 Y171.635 E.01773
G1 X197.321 Y172.267 E.02285
G1 X196.697 Y172.79 E.02553
G1 X195.882 Y173.047 E.02679
G1 X154.236 Y173.02 E1.30578
G1 X153.1 Y172.889 E.03585
G1 X151.977 Y172.649 E.03601
G1 X150.898 Y172.308 E.03548
G1 X149.841 Y171.86 E.036
G1 X148.732 Y171.252 E.03965
G1 X147.799 Y170.611 E.03549
G1 X146.918 Y169.873 E.03603
G1 X146.005 Y168.91 E.04161
G1 X145.771 Y168.449 E.01621
G1 X145.633 Y167.842 E.01952
G1 X145.639 Y138.863 E.90862
G1 X145.729 Y137.447 E.04449
G1 X145.969 Y135.819 E.0516
G1 X146.309 Y134.374 E.04654
G1 X146.796 Y132.876 E.04939
G1 X147.343 Y131.565 E.04454
G1 X148.003 Y130.276 E.04541
G1 X148.761 Y129.043 E.04538
G1 X149.575 Y127.923 E.04341
G1 X150.513 Y126.821 E.04537
G1 X151.535 Y125.795 E.04541
G1 X152.635 Y124.852 E.04543
G1 X153.806 Y123.998 E.04544
G1 X155 Y123.261 E.04399
G1 X156.247 Y122.617 E.04401
G1 X157.581 Y122.054 E.0454
G1 X158.648 Y121.699 E.03526
M204 S1000
G1 X158.766 Y122.057 F10800
M204 S800
G1 F1200
G1 X159.067 Y121.957 E.00994
G1 X160.48 Y121.609 E.04563
G1 X161.868 Y121.382 E.0441
G1 X164.578 Y121.246 E.08508
G1 X192.584 Y121.246 E.87811
G1 X193.101 Y121.366 E.01664
G1 X193.538 Y121.608 E.01566
G1 X194.639 Y122.723 E.04913
G1 X195.568 Y123.964 E.04861
G1 X196.337 Y125.35 E.0497
G1 X196.903 Y126.804 E.04892
G1 X197.253 Y128.231 E.04607
G1 X197.374 Y129.094 E.02732
G1 X197.428 Y129.901 E.02536
G1 X197.434 Y171.063 E1.29061
G1 X197.341 Y171.476 E.01327
G1 X197.042 Y172.012 E.01924
G1 X196.512 Y172.461 E.02178
G1 X195.853 Y172.669 E.02167
G1 X154.257 Y172.643 E1.30421
G1 X153.152 Y172.515 E.03488
G1 X152.065 Y172.282 E.03486
G1 X151.02 Y171.951 E.03437
G1 X149.997 Y171.517 E.03484
G1 X148.938 Y170.936 E.03787
G1 X148.02 Y170.305 E.03493
G1 X147.168 Y169.59 E.03487
G1 X146.326 Y168.711 E.03816
G1 X146.132 Y168.339 E.01315
G1 X146.01 Y167.82 E.01672
G1 X146.016 Y138.869 E.90774
G1 X146.105 Y137.477 E.04373
G1 X146.339 Y135.888 E.05036
G1 X146.671 Y134.478 E.04542
G1 X147.15 Y133.005 E.04857
G1 X147.688 Y131.718 E.04374
G1 X148.335 Y130.455 E.04449
G1 X149.078 Y129.247 E.04447
G1 X149.867 Y128.162 E.04206
G1 X150.785 Y127.082 E.04444
G1 X151.787 Y126.076 E.04452
G1 X152.864 Y125.152 E.04449
G1 X154.01 Y124.315 E.0445
G1 X155.191 Y123.586 E.04352
G1 X156.413 Y122.955 E.04312
G1 X157.72 Y122.404 E.04447
G1 X158.709 Y122.076 E.03267
M204 S1000
G1 X158.828 Y122.433 F10800
M204 S800
G1 F1200
