; generated by PrusaSlicer 2.5.0+win64 on 2024-07-23 at 19:44:05 UTC


;
;
; 

; external perimeters extrusion width = 0.45mm
; perimeters extrusion width = 0.45mm
; infill extrusion width = 0.45mm
; solid infill extrusion width = 0.45mm
; top infill extrusion width = 0.40mm
; support material extrusion width = 0.35mm
; first layer extrusion width = 0.42mm

M73 P0 R193
M73 Q0 S195
M201 X1000 Y1000 Z200 E5000 ; sets maximum accelerations, mm/sec^2
M203 X200 Y200 Z12 E120 ; sets maximum feedrates, mm / sec
M204 P1250 R1250 T1250 ; sets acceleration (P, T) and retract acceleration (R), mm/sec^2
M205 X8.00 Y8.00 Z0.40 E4.50 ; sets the jerk limits, mm/sec
M205 S0 T0 ; sets the minimum extruding and travel feed rate, mm/sec
M107
;TYPE:Custom
M862.3 P "MK3S" ; printer model check
M862.1 P0.4 ; nozzle diameter check
M115 U3.11.0 ; tell printer latest fw version
G90 ; use absolute coordinates
M83 ; extruder relative mode
M104 S215 ; set extruder temp
M140 S60 ; set bed temp
M190 S60 ; wait for bed temp
M109 S215 ; wait for extruder temp
G28 W ; home all without mesh bed level
G80 ; mesh bed leveling

G1 Z0.2 F720
G1 Y-3 F1000 ; go outside print area
G92 E0
G1 X60 E9 F1000 ; intro line
G1 X100 E12.5 F1000 ; intro line

G92 E0
M221 S95

; Don't change E values below. Excessive value can damage the printer.
M907 E430 ; set extruder motor current
G21 ; set units to millimeters
G90 ; use absolute coordinates
M83 ; use relative distances for extrusion
M900 K0.05 ; Filament gcode LA 1.5
M900 K30 ; Filament gcode LA 1.0
M107
;LAYER_CHANGE
;Z:0.2
;HEIGHT:0.2
;BEFORE_LAYER_CHANGE
G92 E0.0
;0.2


G1 E-.8 F2100
G1 Z.4 F720
;AFTER_LAYER_CHANGE
;0.2
G1 X90.05 Y67.843 F10800
G1 Z.2 F720
G1 E.8 F2100
M204 S800
;TYPE:Skirt/Brim
;WIDTH:0.42
G1 F1200
G1 X90.161 Y67.732 E.0049
G1 X91.842 Y67.036 E.05704
G1 X158.158 Y67.036 E2.07932
G1 X159.839 Y67.732 E.05704
G1 X159.95 Y67.843 E.0049
G1 X160.646 Y69.524 E.05704
G1 X160.646 Y140.342 E2.22044
G1 X160.153 Y141.791 E.048
G1 X159.964 Y142.036 E.0097
G1 X158.857 Y142.833 E.04278
G1 X158.08 Y142.964 E.02469
G1 X91.842 Y142.964 E2.07687
G1 X90.161 Y142.268 E.05704
G1 X90.05 Y142.157 E.0049
G1 X89.354 Y140.476 E.05704
G1 X89.354 Y69.524 E2.22467
G1 X90.027 Y67.898 E.05516
M204 S1000
;WIPE_START
M73 Q0 S194
G1 F8640
G1 X90.161 Y67.732 E-.04917
G1 X91.842 Y67.036 E-.42009
G1 X93.101 Y67.036 E-.29074
;WIPE_END
G1 E-.04 F2100
G1 Z.6 F720
G1 X101.829 Y73.948 F10800
G1 Z.2 F720
G1 E.8 F2100
M204 S800
G1 F1200
G1 X102.621 Y72.979 E.03921
G1 X103.371 Y72.36 E.0305
G1 X105.504 Y71.629 E.07067
G1 X144.422 Y71.633 E1.22025
G1 X145.442 Y71.827 E.03256
G1 X146.42 Y72.243 E.03333
G1 X147.545 Y73.138 E.04508
G1 X148.437 Y74.476 E.05044
G1 X148.846 Y76.022 E.05011
G1 X148.846 Y133.976 E1.81712
G1 X148.529 Y135.287 E.04229
G1 X148.171 Y136.052 E.0265
G1 X147.379 Y137.021 E.03921
G1 X146.629 Y137.64 E.0305
G1 X144.497 Y138.371 E.07066
G1 X105.549 Y138.371 E1.22118
G1 X104.238 Y138.054 E.04229
G1 X103.473 Y137.696 E.0265
G1 X102.504 Y136.904 E.03921
G1 X101.885 Y136.154 E.0305
G1 X101.154 Y134.022 E.07066
G1 X101.154 Y76.024 E1.81848
G1 X101.471 Y74.713 E.04229
G1 X101.804 Y74.002 E.02462
M204 S1000
G1 X102.144 Y74.163 F10800
M204 S800
G1 F1200
G1 X102.899 Y73.234 E.03755
G1 X103.584 Y72.674 E.02773
G1 X105.535 Y72.006 E.06465
G1 X144.403 Y72.01 E1.2187
G1 X145.35 Y72.193 E.03022
G1 X146.247 Y72.578 E.03062
G1 X147.286 Y73.414 E.0418
G1 X148.081 Y74.604 E.0449
G1 X148.469 Y76.047 E.04682
G1 X148.469 Y133.953 E1.81561
G1 X148.168 Y135.178 E.03955
M73 P0 R192
G1 X147.84 Y135.869 E.02398
G1 X147.101 Y136.766 E.03646
G1 X146.416 Y137.326 E.02773
G1 X144.466 Y137.994 E.06464
G1 X105.572 Y137.994 E1.21949
G1 X104.347 Y137.693 E.03955
G1 X103.656 Y137.365 E.02398
G1 X102.759 Y136.626 E.03646
G1 X102.199 Y135.941 E.02773
G1 X101.531 Y133.991 E.06464
G1 X101.531 Y76.047 E1.81679
G1 X101.832 Y74.822 E.03955
G1 X102.119 Y74.218 E.02097
M204 S1000
G1 X102.458 Y74.381 F10800
M204 S800
G1 F1200
G1 X102.489 Y74.316 E.00225
G1 X103.177 Y73.49 E.03371
G1 X103.795 Y72.988 E.02497
G1 X105.566 Y72.383 E.05865
G1 X144.384 Y72.387 E1.21714
G1 X145.256 Y72.559 E.02785
G1 X146.072 Y72.914 E.0279
G1 X147.025 Y73.688 E.03848
G1 X147.75 Y74.786 E.04126
G1 X148.091 Y76.071 E.0417
G1 X148.091 Y133.93 E1.81411
G1 X147.807 Y135.067 E.03677
G1 X147.511 Y135.684 E.02145
G1 X146.823 Y136.51 E.03371
G1 X146.205 Y137.012 E.02497
G1 X144.435 Y137.616 E.05865
G1 X105.595 Y137.616 E1.21778
G1 X104.458 Y137.332 E.03677
G1 X103.841 Y137.036 E.02145
G1 X103.015 Y136.348 E.03371
G1 X102.513 Y135.73 E.02497
G1 X101.909 Y133.96 E.05865
G1 X101.909 Y76.07 E1.81508
G1 X102.193 Y74.933 E.03677
G1 X102.432 Y74.435 E.01732
M204 S1000
G1 X102.77 Y74.599 F10800
M204 S800
G1 F1200
G1 X102.817 Y74.503 E.00337
G1 X103.453 Y73.747 E.03097
G1 X104.005 Y73.302 E.02223
G1 X105.596 Y72.761 E.0527
G1 X144.365 Y72.764 E1.21557
G1 X145.161 Y72.924 E.02544
G1 X145.896 Y73.248 E.02518
G1 X146.762 Y73.96 E.03516
G1 X147.417 Y74.966 E.03763
G1 X147.714 Y76.095 E.03663
G1 X147.714 Y133.905 E1.8126
G1 X147.447 Y134.955 E.03395
G1 X147.183 Y135.497 E.01892
G1 X146.547 Y136.253 E.03097
G1 X145.995 Y136.698 E.02223
G1 X144.404 Y137.239 E.05269
G1 X105.62 Y137.239 E1.21605
G1 X104.57 Y136.972 E.03395
G1 X104.028 Y136.708 E.01892
G1 X103.272 Y136.072 E.03097
G1 X102.827 Y135.52 E.02223
G1 X102.286 Y133.929 E.05269
G1 X102.286 Y76.095 E1.81335
G1 X102.553 Y75.045 E.03395
G1 X102.744 Y74.653 E.01367
M204 S1000
G1 X103.081 Y74.82 F10800
M204 S800
G1 F1200
G1 X103.145 Y74.692 E.00449
G1 X103.728 Y74.006 E.02823
G1 X104.214 Y73.618 E.01952
G1 X105.627 Y73.138 E.04678
G1 X144.347 Y73.141 E1.21402
G1 X145.028 Y73.278 E.02178
G1 X145.719 Y73.582 E.02369
G1 X146.499 Y74.231 E.03181
G1 X147.061 Y75.093 E.03225
G1 X147.337 Y76.12 E.03337
G1 X147.337 Y133.881 E1.81104
G1 X147.087 Y134.84 E.03107
G1 X146.855 Y135.308 E.01639
G1 X146.272 Y135.994 E.02823
G1 X145.786 Y136.382 E.01952
G1 X144.373 Y136.862 E.04678
G1 X105.644 Y136.862 E1.21431
G1 X104.685 Y136.612 E.03107
G1 X104.217 Y136.38 E.01639
G1 X103.531 Y135.797 E.02823
G1 X103.143 Y135.311 E.01952
G1 X102.663 Y133.898 E.04678
G1 X102.663 Y76.119 E1.81161
G1 X102.913 Y75.16 E.03107
G1 X103.054 Y74.874 E.01002
M204 S1000
G1 X103.39 Y75.042 F10800
M204 S800
G1 F1200
G1 X103.47 Y74.883 E.00561
G1 X104.001 Y74.266 E.02551
G1 X104.422 Y73.934 E.01682
G1 X105.658 Y73.515 E.04091
G1 X144.327 Y73.518 E1.21244
G1 X144.931 Y73.643 E.01932
G1 X145.54 Y73.915 E.02093
G1 X146.233 Y74.5 E.02843
G1 X146.727 Y75.271 E.0287
G1 X146.96 Y76.145 E.02837
G1 X146.96 Y133.856 E1.80948
G1 X146.728 Y134.722 E.02814
M73 Q0 S193
G1 X146.53 Y135.117 E.01386
G1 X145.999 Y135.734 E.02551
G1 X145.578 Y136.066 E.01682
G1 X144.342 Y136.485 E.04091
G1 X105.669 Y136.485 E1.21255
G1 X104.803 Y136.253 E.02814
G1 X104.408 Y136.055 E.01386
G1 X103.791 Y135.524 E.02551
G1 X103.459 Y135.103 E.01682
G1 X103.04 Y133.867 E.04091
G1 X103.04 Y76.144 E1.80985
G1 X103.272 Y75.278 E.02814
G1 X103.363 Y75.096 E.00637
M204 S1000
G1 X103.697 Y75.267 F10800
M204 S800
G1 F1200
G1 X103.795 Y75.076 E.00673
G1 X104.272 Y74.528 E.0228
G1 X104.629 Y74.251 E.01416
G1 X105.689 Y73.892 E.0351
G1 X144.307 Y73.895 E1.21083
G1 X144.831 Y74.007 E.01681
G1 X145.359 Y74.247 E.01817
G1 X145.967 Y74.768 E.0251
G1 X146.371 Y75.399 E.02351
G1 X146.583 Y76.171 E.0251
G1 X146.583 Y133.83 E1.80785
G1 X146.37 Y134.602 E.02513
G1 X146.205 Y134.924 E.01132
G1 X145.728 Y135.472 E.0228
G1 X145.371 Y135.749 E.01416
G1 X144.311 Y136.108 E.0351
G1 X105.695 Y136.108 E1.21077
G1 X104.923 Y135.895 E.02513
G1 X104.601 Y135.73 E.01132
G1 X104.053 Y135.253 E.0228
G1 X103.776 Y134.896 E.01416
G1 X103.417 Y133.836 E.0351
G1 X103.417 Y76.17 E1.80807
G1 X103.63 Y75.398 E.02513
G1 X103.669 Y75.321 E.00271
M204 S1000
G1 X104 Y75.495 F10800
M204 S800
G1 F1200
G1 X104.117 Y75.273 E.00785
G1 X104.542 Y74.793 E.02012
G1 X104.833 Y74.569 E.01151
G1 X105.72 Y74.269 E.02935
G1 X144.285 Y74.273 E1.2092
G1 X144.729 Y74.37 E.01423
M73 P0 R191
G1 X145.175 Y74.577 E.01541
G1 X145.698 Y75.034 E.02178
G1 X146.017 Y75.529 E.01847
G1 X146.206 Y76.198 E.02179
G1 X146.206 Y133.803 E1.80616
G1 X146.014 Y134.479 E.02204
G1 X145.883 Y134.727 E.00878
G1 X145.458 Y135.207 E.02012
G1 X145.167 Y135.431 E.01151
G1 X144.28 Y135.731 E.02934
G1 X105.722 Y135.731 E1.20896
G1 X105.046 Y135.539 E.02204
G1 X104.798 Y135.408 E.00878
G1 X104.318 Y134.983 E.02012
G1 X104.094 Y134.692 E.01151
G1 X103.794 Y133.805 E.02934
G1 X103.794 Y76.197 E1.80626
G1 X103.978 Y75.55 E.0211
M204 S1000
G1 X104.339 Y75.657 F10800
M204 S800
G1 F1200
G1 X104.436 Y75.474 E.0065
G1 X104.809 Y75.059 E.01749
G1 X105.035 Y74.888 E.00889
G1 X105.751 Y74.646 E.02367
G1 X144.263 Y74.65 E1.20753
G1 X144.623 Y74.733 E.01157
G1 X144.988 Y74.905 E.01266
G1 X145.428 Y75.297 E.01848
G1 X145.663 Y75.662 E.01362
G1 X145.829 Y76.226 E.01841
G1 X145.829 Y133.774 E1.8044
G1 X145.659 Y134.351 E.01885
G1 X145.564 Y134.526 E.00624
G1 X145.191 Y134.941 E.01749
G1 X144.965 Y135.112 E.00889
G1 X144.25 Y135.354 E.02367
G1 X105.751 Y135.354 E1.20711
G1 X105.174 Y135.184 E.01885
G1 X104.999 Y135.089 E.00624
G1 X104.584 Y134.716 E.01749
G1 X104.413 Y134.49 E.00889
G1 X104.171 Y133.775 E.02367
G1 X104.171 Y76.226 E1.80441
G1 X104.322 Y75.715 E.01671
M204 S1000
M73 P1 R191
M73 Q1 S193
G1 X104.681 Y75.826 F10800
M204 S800
G1 F1200
G1 X104.753 Y75.68 E.00509
G1 X105.074 Y75.328 E.01495
G1 X105.235 Y75.209 E.00628
G1 X105.782 Y75.023 E.0181
G1 X144.241 Y75.027 E1.20588
G1 X144.48 Y75.082 E.00767
G1 X144.8 Y75.233 E.01111
G1 X145.155 Y75.558 E.01508
G1 X145.311 Y75.8 E.00902
G1 X145.452 Y76.255 E.01495
G1 X145.452 Y133.745 E1.80254
G1 X145.305 Y134.217 E.0155
G1 X145.247 Y134.32 E.0037
G1 X144.926 Y134.672 E.01495
G1 X144.765 Y134.791 E.00628
G1 X144.218 Y134.977 E.0181
G1 X105.78 Y134.977 E1.2052
G1 X105.308 Y134.83 E.0155
G1 X105.205 Y134.772 E.0037
G1 X104.853 Y134.451 E.01495
G1 X104.734 Y134.29 E.00628
G1 X104.548 Y133.743 E.0181
G1 X104.548 Y76.255 E1.8025
G1 X104.663 Y75.883 E.01221
M204 S1000
G1 X105.02 Y76.001 F10800
M204 S800
G1 F1200
G1 X105.063 Y75.895 E.00358
G1 X105.336 Y75.6 E.01261
G1 X105.431 Y75.532 E.00367
G1 X105.813 Y75.4 E.01267
G1 X144.219 Y75.404 E1.20419
G1 X144.336 Y75.431 E.00377
G1 X144.61 Y75.561 E.0095
G1 X144.879 Y75.816 E.0116
G1 X144.962 Y75.943 E.00476
G1 X145.075 Y76.287 E.01136
G1 X145.075 Y133.713 E1.80055
G1 X144.937 Y134.105 E.01303
G1 X144.664 Y134.4 E.01261
G1 X144.569 Y134.468 E.00367
G1 X144.187 Y134.6 E.01267
G1 X105.812 Y134.6 E1.20321
G1 X105.42 Y134.462 E.01303
G1 X105.125 Y134.189 E.01261
G1 X105.057 Y134.094 E.00367
G1 X104.925 Y133.712 E.01267
G1 X104.925 Y76.287 E1.80051
G1 X105.001 Y76.058 E.00757
M204 S1000
G1 X105.352 Y76.183 F10800
M204 S800
G1 F1200
G1 X105.379 Y76.109 E.00247
G1 X105.596 Y75.875 E.01002
G1 X105.847 Y75.777 E.00845
G1 X144.167 Y75.777 E1.2015
G1 X144.417 Y75.887 E.00856
G1 X144.598 Y76.068 E.00802
G1 X144.698 Y76.322 E.00856
G1 X144.698 Y133.678 E1.79836
G1 X144.621 Y133.891 E.00709
M73 Q1 S192
G1 X144.404 Y134.125 E.01002
G1 X144.153 Y134.223 E.00845
G1 X105.847 Y134.223 E1.20106
G1 X105.634 Y134.146 E.00709
G1 X105.4 Y133.929 E.01002
G1 X105.302 Y133.678 E.00845
G1 X105.302 Y76.322 E1.79836
G1 X105.332 Y76.24 E.00274
M204 S1000
G1 X105.679 Y76.364 F10800
M204 S800
G1 F1200
G1 X105.708 Y76.295 E.00235
G1 X105.82 Y76.183 E.00495
G1 X105.889 Y76.154 E.00235
G1 X144.111 Y76.154 E1.19843
G1 X144.18 Y76.183 E.00235
G1 X144.292 Y76.295 E.00495
G1 X144.321 Y76.364 E.00235
G1 X144.321 Y133.636 E1.79573
G1 X144.292 Y133.705 E.00235
G1 X144.18 Y133.817 E.00495
G1 X144.111 Y133.846 E.00235
G1 X105.889 Y133.846 E1.19843
G1 X105.82 Y133.817 E.00235
G1 X105.708 Y133.705 E.00495
G1 X105.679 Y133.636 E.00235
G1 X105.679 Y76.424 E1.79385
M204 S1000
; printing object mountEasy.STL id:0 copy 0
;WIPE_START
G1 F8640
G1 X105.708 Y76.295 E-.03058
G1 X105.82 Y76.183 E-.03645
G1 X105.889 Y76.154 E-.01732
G1 X108.815 Y76.154 E-.67565
;WIPE_END
G1 E-.04 F2100
G1 Z.6 F720
G1 X158.08 Y140.398 F10800
G1 Z.2 F720
G1 E.8 F2100
M204 S800
;TYPE:Support material
G1 F1200
G1 X91.92 Y140.398 E2.07442
G1 X91.92 Y69.602 E2.21977
M73 P1 R190
G1 X158.08 Y69.602 E2.07442
G1 X158.08 Y140.342 E2.21799
M204 S1000
;WIPE_START
G1 F8640
G1 X158.08 Y137.05 E-.76
;WIPE_END
G1 E-.04 F2100
G1 Z.6 F720
G1 X105.748 Y70.933 F10800
G1 Z.2 F720
G1 E.8 F2100
M204 S800
G1 F1200
G1 X103.793 Y71.31 E.06243
G1 X102.04 Y72.455 E.06564
G1 X100.866 Y74.19 E.06567
G1 X100.458 Y76.222 E.065
G1 X100.458 Y133.777 E1.8046
G1 X100.835 Y135.732 E.06243
G1 X101.98 Y137.485 E.06564
G1 X103.715 Y138.659 E.06567
G1 X105.747 Y139.067 E.065
G1 X144.252 Y139.067 E1.20731
G1 X146.207 Y138.69 E.06243
G1 X147.96 Y137.545 E.06564
G1 X149.134 Y135.81 E.06567
G1 X149.542 Y133.778 E.065
G1 X149.542 Y76.223 E1.8046
G1 X149.165 Y74.268 E.06243
G1 X148.02 Y72.515 E.06564
G1 X146.285 Y71.341 E.06567
G1 X144.253 Y70.933 E.065
G1 X105.804 Y70.933 E1.20553
M204 S1000
;WIPE_START
G1 F8640
G1 X109.096 Y70.933 E-.76
;WIPE_END
G1 E-.04 F2100
G1 Z.6 F720
G1 X157.68 Y140.228 F10800
G1 Z.2 F720
G1 E.8 F2100
M204 S800
G1 F1200
G1 X157.68 Y69.941 E2.20381
G1 X157.261 Y69.941 E.01314
G1 X157.261 Y140.059 E2.19849
G1 X156.842 Y140.059 E.01314
G1 X156.842 Y69.941 E2.19849
G1 X156.423 Y69.941 E.01314
G1 X156.423 Y140.059 E2.19849
G1 X156.004 Y140.059 E.01314
G1 X156.004 Y69.941 E2.19849
G1 X155.585 Y69.941 E.01314
M73 Q1 S191
G1 X155.585 Y140.059 E2.19849
G1 X155.166 Y140.059 E.01314
G1 X155.166 Y69.941 E2.19849
G1 X154.747 Y69.941 E.01314
G1 X154.747 Y140.059 E2.19849
G1 X154.328 Y140.059 E.01314
G1 X154.328 Y69.941 E2.19849
G1 X153.909 Y69.941 E.01314
G1 X153.909 Y140.059 E2.19849
G1 X153.49 Y140.059 E.01314
M73 P1 R189
G1 X153.49 Y69.941 E2.19849
G1 X153.071 Y69.941 E.01314
G1 X153.071 Y140.059 E2.19849
G1 X152.652 Y140.059 E.01314
G1 X152.652 Y69.941 E2.19849
G1 X152.234 Y69.941 E.01314
G1 X152.234 Y140.059 E2.19849
G1 X151.815 Y140.059 E.01314
M73 P2 R189
M73 Q2 S191
G1 X151.815 Y69.941 E2.19849
G1 X151.396 Y69.941 E.01314
G1 X151.396 Y140.059 E2.19849
G1 X150.977 Y140.059 E.01314
G1 X150.977 Y69.941 E2.19849
G1 X150.558 Y69.941 E.01314
G1 X150.558 Y140.059 E2.19849
G1 X150.139 Y140.059 E.01314
G1 X150.139 Y69.941 E2.19849
G1 X149.72 Y69.941 E.01314
G1 X149.72 Y140.059 E2.19849
G1 X149.301 Y140.059 E.01314
G1 X149.301 Y136.169 E.12196
G1 X148.882 Y136.788 E.02343
G1 X148.882 Y140.059 E.10255
G1 X148.463 Y140.059 E.01314
G1 X148.463 Y137.407 E.08314
G1 X148.202 Y137.792 E.01456
G1 X148.044 Y137.895 E.00594
G1 X148.044 Y140.059 E.06783
G1 X147.625 Y140.059 E.01314
G1 X147.625 Y138.169 E.05925
G1 X147.206 Y138.443 E.0157
G1 X147.206 Y140.059 E.05066
G1 X146.787 Y140.059 E.01314
G1 X146.787 Y138.717 E.04207
G1 X146.368 Y138.991 E.0157
G1 X146.368 Y140.059 E.03348
G1 X145.949 Y140.059 E.01314
G1 X145.949 Y139.086 E.0305
G1 X145.53 Y139.167 E.01338
G1 X145.53 Y140.059 E.02797
G1 X145.111 Y140.059 E.01314
G1 X145.111 Y139.247 E.02544
G1 X144.692 Y139.328 E.01338
G1 X144.692 Y140.059 E.02291
G1 X144.273 Y140.059 E.01314
G1 X144.273 Y139.407 E.02045
G1 X143.854 Y139.407 E.01314
G1 X143.854 Y140.059 E.02045
G1 X143.435 Y140.059 E.01314
G1 X143.435 Y139.407 E.02045
G1 X143.016 Y139.407 E.01314
G1 X143.016 Y140.059 E.02045
G1 X142.597 Y140.059 E.01314
G1 X142.597 Y139.407 E.02045
G1 X142.178 Y139.407 E.01314
G1 X142.178 Y140.059 E.02045
G1 X141.759 Y140.059 E.01314
G1 X141.759 Y139.407 E.02045
G1 X141.34 Y139.407 E.01314
G1 X141.34 Y140.059 E.02045
G1 X140.921 Y140.059 E.01314
G1 X140.921 Y139.407 E.02045
G1 X140.502 Y139.407 E.01314
G1 X140.502 Y140.059 E.02045
G1 X140.083 Y140.059 E.01314
G1 X140.083 Y139.407 E.02045
G1 X139.664 Y139.407 E.01314
G1 X139.664 Y140.059 E.02045
G1 X139.245 Y140.059 E.01314
G1 X139.245 Y139.407 E.02045
G1 X138.826 Y139.407 E.01314
G1 X138.826 Y140.059 E.02045
G1 X138.407 Y140.059 E.01314
G1 X138.407 Y139.407 E.02045
G1 X137.988 Y139.407 E.01314
G1 X137.988 Y140.059 E.02045
G1 X137.569 Y140.059 E.01314
G1 X137.569 Y139.407 E.02045
G1 X137.15 Y139.407 E.01314
G1 X137.15 Y140.059 E.02045
G1 X136.731 Y140.059 E.01314
